logos/dash.svg

<svg id="ez4ns36htmzd1" xmlns="http://www.w3.org/2000/svg" xmlns:xlink="http://www.w3.org/1999/xlink" viewBox="0 0 769 769" shape-rendering="geometricPrecision" text-rendering="geometricPrecision">
    <style>
        <![CDATA[#ez4ns36htmzd1{pointer-events: all} #ez4ns36htmzd1:hover * {animation-play-state: running !important}#ez4ns36htmzd16 {animation: ez4ns36htmzd16_f_o 3000ms linear infinite normal forwards}@keyframes ez4ns36htmzd16_f_o { 0% {fill-opacity: 1;animation-timing-function: step-end} 13.333333% {fill-opacity: 0;animation-timing-function: step-end} 90% {fill-opacity: 1} 100% {fill-opacity: 1} }#ez4ns36htmzd17 {animation: ez4ns36htmzd17_f_o 3000ms linear infinite normal forwards}@keyframes ez4ns36htmzd17_f_o { 0% {fill-opacity: 1;animation-timing-function: step-end} 16.666667% {fill-opacity: 0;animation-timing-function: step-end} 70% {fill-opacity: 1} 100% {fill-opacity: 1} }#ez4ns36htmzd18 {animation: ez4ns36htmzd18_f_o 3000ms linear infinite normal forwards}@keyframes ez4ns36htmzd18_f_o { 0% {fill-opacity: 1;animation-timing-function: step-end} 20% {fill-opacity: 0;animation-timing-function: step-end} 53.333333% {fill-opacity: 1} 100% {fill-opacity: 1} }#ez4ns36htmzd19 {animation: ez4ns36htmzd19_f_o 3000ms linear infinite normal forwards}@keyframes ez4ns36htmzd19_f_o { 0% {fill-opacity: 1;animation-timing-function: step-end} 23.333333% {fill-opacity: 0;animation-timing-function: step-end} 33.333333% {fill-opacity: 1} 100% {fill-opacity: 1} }#ez4ns36htmzd20_to {animation: ez4ns36htmzd20_to__to 3000ms linear infinite normal forwards}@keyframes ez4ns36htmzd20_to__to { 0% {transform: translate(261.260000px,670.825497px)} 10% {transform: translate(261px,670.825497px)} 13.333333% {transform: translate(266.530689px,651.093989px)} 16.666667% {transform: translate(283.713202px,637px)} 20% {transform: translate(305.592946px,633.551473px)} 23.333333% {transform: translate(325.591465px,639.031651px)} 33.333333% {transform: translate(314.468010px,633.384489px)} 50% {transform: translate(296.971628px,634.413605px)} 66.666667% {transform: translate(279.831880px,639.686618px)} 83.333333% {transform: translate(267.182725px,654.503658px)} 100% {transform: translate(261.170000px,670px)} }#ez4ns36htmzd20_tr {animation: ez4ns36htmzd20_tr__tr 3000ms linear infinite normal forwards}@keyframes ez4ns36htmzd20_tr__tr { 0% {transform: rotate(-120deg)} 10% {transform: rotate(-120deg)} 23.333333% {transform: rotate(0deg)} 100% {transform: rotate(-120deg)} }]]>
    </style>
    <g id="ez4ns36htmzd2" transform="matrix(4 0 0 4 -821.12646484499999 -2304.68627927500074)">
        <path
            id="ez4ns36htmzd3"
            d="M396.794584,671.905749C396.794584,695.965749,396.794584,720.035749,396.794584,744.095749C396.794584,755.125749,388.474584,765.205749,377.614584,767.275749C376.004584,767.585749,374.344584,767.755749,372.714584,767.755749C324.744584,767.785749,276.784584,767.775749,228.814584,767.775749C217.054584,767.775749,206.794584,758.755749,205.254584,747.055749C205.114584,746.025749,205.024584,744.975749,205.024584,743.935749C205.014584,695.845749,205.014584,647.755748,205.014584,599.675749C205.014584,588.645749,213.334584,578.555749,224.194584,576.495749C225.804584,576.185749,227.464584,576.015749,229.094584,576.015749C277.104584,575.995749,325.114584,575.995749,373.114584,575.995749C384.144584,575.995749,394.244584,584.325749,396.294584,595.175749C396.594584,596.785749,396.774584,598.445749,396.774584,600.075749C396.804584,624.025749,396.794584,647.965749,396.794584,671.905749Z"
            fill="#ffcb29"
            stroke="none"
            stroke-width="1"
        />
    </g>
    <g id="ez4ns36htmzd4" transform="matrix(3.50000000000000 0 0 3.50000000000000 -654.48834834249999 -1954.86521160750067)">
        <g id="ez4ns36htmzd5">
            <path
                id="ez4ns36htmzd6"
                d="M214.610000,665.910000C215.150000,662.560000,215.500000,659.170000,216.260000,655.870000C224.590000,619.760000,246.610000,596.570000,282.570000,587.800000C308.280000,581.530000,333.650000,586.629107,355.080000,602.179107C363.819224,608.314564,369.534358,616.007576,370.324358,616.637576C364.754358,620.907576,368.769265,640.039207,355.340000,631.010871C348.976101,621.578144,340.714518,615.196333,321.770000,608.860000C284.110000,596.610000,243.560000,620.610000,235.990000,659.430000C228.910000,695.770000,251.820000,730.620000,288.210000,738.160000C324.310000,745.640000,358.860000,722.650000,366.890000,687.300000C369.250000,676.920000,369.040000,666.570000,366.480000,656.240000C364.636739,646.738900,358.349099,634.309166,353.619669,628.262219C352.170296,618.988656,352.000879,610.399779,370.324358,616.637576C380.507024,631.952970,383.350000,642.600000,384.420000,645.910000C399.810000,693.680000,371.850000,744.480000,323.290000,757.010000C276.880000,768.980000,229.090000,740.720000,217.310000,694.240000C216.190000,689.810000,215.760000,685.200000,215,680.680000C214.920000,680.220000,214.740000,679.770000,214.610000,679.310000C214.610000,674.840000,214.610000,670.380000,214.610000,665.910000Z"
               fill="#01507b"
                stroke="none"
                stroke-width="1"
            />
            <g id="ez4ns36htmzd7">
                <path
                    id="ez4ns36htmzd8"
                    d="M344.520000,643.310000C344.550000,639.520000,347.500000,636.680000,351.340000,636.730000C355,636.780000,357.890000,639.720000,357.900000,643.400000C357.900000,647.150000,354.900000,650.130000,351.150000,650.120000C347.400000,650.090000,344.490000,647.110000,344.520000,643.310000Z"
                    transform="matrix(1 0 0 1 -2.73019143500014 1.49072462249998)"
                    fill="#01507b"
                    stroke="none"
                    stroke-width="1"
                />
                <path
                    id="ez4ns36htmzd9"
                    d="M348.480000,672.450000C348.520000,668.680000,351.490000,665.840000,355.340000,665.900000C358.990000,665.960000,361.870000,668.920000,361.860000,672.600000C361.850000,676.340000,358.830000,679.310000,355.080000,679.280000C351.340000,679.260000,348.440000,676.260000,348.480000,672.450000Z"
                    fill="#01507b"
                    stroke="none"
                    stroke-width="1"
                />
                <path
                    id="ez4ns36htmzd10"
                    d="M241.380000,672.450000C241.430000,668.680000,244.390000,665.850000,248.230000,665.910000C251.880000,665.970000,254.760000,668.930000,254.750000,672.610000C254.740000,676.350000,251.720000,679.320000,247.970000,679.290000C244.230000,679.260000,241.340000,676.260000,241.380000,672.450000Z"
                    fill="rgb(213,39,39)"
                    stroke="none"
                    stroke-width="1"
                />
                <path
                    id="ez4ns36htmzd11"
                    d="M254.870000,639.120000C258.610000,639.160000,261.530000,642.190000,261.460000,645.960000C261.390000,649.590000,258.400000,652.500000,254.740000,652.500000C250.980000,652.500000,248.060000,649.520000,248.080000,645.730000C248.100000,641.930000,251.030000,639.080000,254.870000,639.120000Z"
                    fill="rgb(213,39,39)"
                    stroke="none"
                    stroke-width="1"
                />
                <path
                    id="ez4ns36htmzd12"
                    d="M321.710000,625.600000C321.740000,621.810000,324.690000,618.970000,328.530000,619.020000C332.190000,619.070000,335.080000,622.010000,335.090000,625.690000C335.090000,629.440000,332.090000,632.420000,328.340000,632.410000C324.580000,632.390000,321.680000,629.400000,321.710000,625.600000Z"
                    fill="rgb(213,39,39)"
                    stroke="none"
                    stroke-width="1"
                />
                <path
                    id="ez4ns36htmzd13"
                    d="M274.990000,619.020000C278.720000,619.070000,281.630000,622.120000,281.540000,625.900000C281.460000,629.520000,278.450000,632.420000,274.790000,632.400000C271.040000,632.380000,268.140000,629.390000,268.170000,625.590000C268.200000,621.810000,271.140000,618.970000,274.990000,619.020000Z"
                    fill="rgb(213,39,39)"
                    stroke="none"
                    stroke-width="1"
                />
                <path
                    id="ez4ns36htmzd14"
                    d="M301.680000,612.330000C305.430000,612.350000,308.360000,615.360000,308.300000,619.130000C308.250000,622.770000,305.280000,625.690000,301.620000,625.710000C297.860000,625.720000,294.910000,622.760000,294.920000,618.980000C294.950000,615.170000,297.860000,612.300000,301.680000,612.330000Z"
                    fill="rgb(213,39,39)"
                    stroke="none"
                    stroke-width="1"
                />
            </g>
            <g id="ez4ns36htmzd15">
                <path
                    id="ez4ns36htmzd16"
                    d="M254.870000,639.120000C258.610000,639.160000,261.530000,642.190000,261.460000,645.960000C261.390000,649.590000,258.400000,652.500000,254.740000,652.500000C250.980000,652.500000,248.060000,649.520000,248.080000,645.730000C248.100000,641.930000,251.030000,639.080000,254.870000,639.120000Z"
                    fill="#01507b"
                    stroke="none"
                    stroke-width="1"
                />
                <path
                    id="ez4ns36htmzd17"
                    d="M274.990000,619.020000C278.720000,619.070000,281.630000,622.120000,281.540000,625.900000C281.460000,629.520000,278.450000,632.420000,274.790000,632.400000C271.040000,632.380000,268.140000,629.390000,268.170000,625.590000C268.200000,621.810000,271.140000,618.970000,274.990000,619.020000Z"
                    fill="#01507b"
                    stroke="none"
                    stroke-width="1"
                />
                <path
                    id="ez4ns36htmzd18"
                    d="M301.680000,612.330000C305.430000,612.350000,308.360000,615.360000,308.300000,619.130000C308.250000,622.770000,305.280000,625.690000,301.620000,625.710000C297.860000,625.720000,294.910000,622.760000,294.920000,618.980000C294.950000,615.170000,297.860000,612.300000,301.680000,612.330000Z"
                    fill="#01507b"
                    stroke="none"
                    stroke-width="1"
                />
                <path
                    id="ez4ns36htmzd19"
                    d="M321.710000,625.600000C321.740000,621.810000,324.690000,618.970000,328.530000,619.020000C332.190000,619.070000,335.080000,622.010000,335.090000,625.690000C335.090000,629.440000,332.090000,632.420000,328.340000,632.410000C324.580000,632.390000,321.680000,629.400000,321.710000,625.600000Z"
                    fill="#01507b"
                    stroke="none"
                    stroke-width="1"
                />
            </g>
            <g id="ez4ns36htmzd20_to" transform="translate(261.260000,670.825497)">
                <g id="ez4ns36htmzd20_tr" transform="rotate(-120)">
                    <g id="ez4ns36htmzd20" transform="translate(-336.067261,-651.040314)">
                        <path
                            id="ez4ns36htmzd21"
                            d="M343.234295,645.810306C340.212691,643.796780,334.845153,639.835258,335.697072,640.168471C335.955461,640.401287,335.115550,640.157407,335.697072,640.168471C335.570687,640.554255,335.629816,640.194708,335.697072,640.168471C335.685233,640.143337,335.342808,640.344474,335.697072,640.168471C347.553971,629.815726,347.200200,629.292418,359.225626,618.112509C360.155071,617.336158,360.113040,618.732017,361.264122,618.375892C363.173595,619.653139,365.529079,620.725273,367.758857,622.057852C367.480023,623.261553,371.741091,626.151959,370.947488,627.099251C360.047289,638.481808,348.576348,651.702004,347.755192,651.279454C347.903633,651.047853,347.560705,651.233327,347.774158,651.246605C347.708690,651.069320,347.531952,651.351755,347.755192,651.279454C347.764766,651.083872,344.220937,645.689224,343.234295,645.810306Z"
                            transform="matrix(1.50000000000000 0 0 1.50000000000000 -154.59505368552976 -329.61478415561066)"
                            fill="#ffcb29"
                            stroke="none"
                            stroke-width="1"
                        />
                        <path
                            id="ez4ns36htmzd22"
                            d="M301.620000,709.500000C289.420000,709.400000,279.180000,699.820000,278.290000,687.600000C277.410000,675.560000,286.150000,664.690000,298.250000,662.980000C300.490000,662.660000,302.820000,662.820000,305.080000,663C306.430000,663.110000,307.390000,662.850000,308.440000,661.960000C330.410000,643.370000,352.410000,624.810000,374.450000,606.300000C375.750000,605.210000,377.330000,604.290000,378.940000,603.790000C381.770000,602.920000,384.430000,605.360000,383.760000,608.250000C383.370000,609.940000,382.490000,611.680000,381.380000,613.010000C362.950000,635.030000,344.470000,657,325.940000,678.940000C324.860000,680.220000,324.440000,681.380000,324.720000,683.060000C326.720000,694.840000,317.670000,707.160000,305.750000,708.980000C304.380000,709.210000,303,709.330000,301.620000,709.500000Z"
                            transform="matrix(1 0 0 1 10.92834357447040 -1.33693915061092)"
                            fill="#01507b"
                            stroke="none"
                            stroke-width="1"
                        />
                    </g>
                </g>
            </g>
        </g>
    </g>
</svg>

<svg xmlns="http://www.w3.org/2000/svg" id="dash" viewBox="0 0 769 769" width="500" height="500" shape-rendering="geometricPrecision" text-rendering="geometricPrecision" version="1.1">
  <style id="rev">
    @keyframes dot_cover1_f_o{0%{fill-opacity:1;animation-timing-function:step-end}13.333333%{fill-opacity:0;animation-timing-function:step-end}90%,to{fill-opacity:1}}@keyframes dot_cover2_f_o{0%{fill-opacity:1;animation-timing-function:step-end}16.666667%{fill-opacity:0;animation-timing-function:step-end}70%,to{fill-opacity:1}}@keyframes dot_cover3_f_o{0%{fill-opacity:1;animation-timing-function:step-end}20%{fill-opacity:0;animation-timing-function:step-end}53.333333%,to{fill-opacity:1}}@keyframes dot_cover4_f_o{0%{fill-opacity:1;animation-timing-function:step-end}23.333333%{fill-opacity:0;animation-timing-function:step-end}33.333333%,to{fill-opacity:1}}@keyframes dial_animation1__to{0%{transform:translate(261.26px,670.825497px)}10%{transform:translate(261px,670.825497px)}13.333333%{transform:translate(266.530689px,651.093989px)}16.666667%{transform:translate(283.713202px,637px)}20%{transform:translate(305.592946px,633.551473px)}23.333333%{transform:translate(325.591465px,639.031651px)}33.333333%{transform:translate(314.46801px,633.384489px)}50%{transform:translate(296.971628px,634.413605px)}66.666667%{transform:translate(279.83188px,639.686618px)}83.333333%{transform:translate(267.182725px,654.503658px)}to{transform:translate(261.17px,670px)}}@keyframes dial_animation2__tr{0%,10%,to{transform:rotate(-120deg)}23.333333%{transform:rotate(0deg)}}#dot_cover1{animation:dot_cover1_f_o 3000ms linear infinite normal forwards}#dot_cover2{animation:dot_cover2_f_o 3000ms linear infinite normal forwards}#dot_cover3{animation:dot_cover3_f_o 3000ms linear infinite normal forwards}#dot_cover4{animation:dot_cover4_f_o 3000ms linear infinite normal forwards}#dial_animation1{animation:dial_animation1__to 3000ms linear infinite normal forwards}#dial_animation2{animation:dial_animation2__tr 3000ms linear infinite normal forwards}
  </style>
  <g id="background" transform="matrix(4 0 0 4 -821.126 -2304.686)">
    <path id="square" d="M396.795 671.906v72.19c0 11.03-8.32 21.11-19.18 23.18-1.61.31-3.27.48-4.9.48-47.97.03-95.93.02-143.9.02-11.76 0-22.02-9.02-23.56-20.72a23.27 23.27 0 01-.23-3.12c-.01-48.09-.01-96.18-.01-144.26 0-11.03 8.32-21.12 19.18-23.18 1.61-.31 3.27-.48 4.9-.48 48.01-.02 96.02-.02 144.02-.02 11.03 0 21.13 8.33 23.18 19.18.3 1.61.48 3.27.48 4.9.03 23.95.02 47.89.02 71.83z" fill="#FE8A30" stroke="none" stroke-width="1"/>
  </g>
  <g id="gauge_top" transform="matrix(3.5 0 0 3.5 -654.488 -1954.865)">
    <g id="gauge_group">
      <path id="gauge_border" d="M214.61 665.91c.54-3.35.89-6.74 1.65-10.04 8.33-36.11 30.35-59.3 66.31-68.07 25.71-6.27 51.08-1.17 72.51 14.38 8.74 6.135 14.454 13.828 15.244 14.458-5.57 4.27-1.555 23.401-14.984 14.373-6.364-9.433-14.625-15.815-33.57-22.151-37.66-12.25-78.21 11.75-85.78 50.57-7.08 36.34 15.83 71.19 52.22 78.73 36.1 7.48 70.65-15.51 78.68-50.86 2.36-10.38 2.15-20.73-.41-31.06-1.843-9.501-8.13-21.93-12.86-27.978-1.45-9.273-1.62-17.862 16.704-11.624 10.183 15.315 13.026 25.962 14.096 29.272 15.39 47.77-12.57 98.57-61.13 111.1-46.41 11.97-94.2-16.29-105.98-62.77-1.12-4.43-1.55-9.04-2.31-13.56-.08-.46-.26-.91-.39-1.37v-13.4z" fill="#000" stroke="none" stroke-width="1"/>
      <g id="main_dots" stroke="none" stroke-width="1">
        <path id="dot1" d="M344.52 643.31c.03-3.79 2.98-6.63 6.82-6.58 3.66.05 6.55 2.99 6.56 6.67 0 3.75-3 6.73-6.75 6.72-3.75-.03-6.66-3.01-6.63-6.81z" transform="translate(-2.73 1.49)" fill="#FFF"/>
        <path id="dot2" d="M348.48 672.45c.04-3.77 3.01-6.61 6.86-6.55 3.65.06 6.53 3.02 6.52 6.7-.01 3.74-3.03 6.71-6.78 6.68-3.74-.02-6.64-3.02-6.6-6.83z" fill="#FFF"/>
        <path id="dot3" d="M241.38 672.45c.05-3.77 3.01-6.6 6.85-6.54 3.65.06 6.53 3.02 6.52 6.7-.01 3.74-3.03 6.71-6.78 6.68-3.74-.03-6.63-3.03-6.59-6.84z" fill="#D52727"/>
        <path id="dot4" d="M254.87 639.12c3.74.04 6.66 3.07 6.59 6.84-.07 3.63-3.06 6.54-6.72 6.54-3.76 0-6.68-2.98-6.66-6.77.02-3.8 2.95-6.65 6.79-6.61z" fill="#D52727"/>
        <path id="dot5" d="M321.71 625.6c.03-3.79 2.98-6.63 6.82-6.58 3.66.05 6.55 2.99 6.56 6.67 0 3.75-3 6.73-6.75 6.72-3.76-.02-6.66-3.01-6.63-6.81z" fill="#D52727"/>
        <path id="dot6" d="M274.99 619.02c3.73.05 6.64 3.1 6.55 6.88-.08 3.62-3.09 6.52-6.75 6.5-3.75-.02-6.65-3.01-6.62-6.81.03-3.78 2.97-6.62 6.82-6.57z" fill="#D52727"/>
        <path id="dot7" d="M301.68 612.33c3.75.02 6.68 3.03 6.62 6.8-.05 3.64-3.02 6.56-6.68 6.58-3.76.01-6.71-2.95-6.7-6.73.03-3.81 2.94-6.68 6.76-6.65z" fill="#D52727"/>
      </g>
      <g id="dot_covers" fill="#FFF" stroke="none" stroke-width="1">
        <path id="dot_cover1" d="M254.87 639.12c3.74.04 6.66 3.07 6.59 6.84-.07 3.63-3.06 6.54-6.72 6.54-3.76 0-6.68-2.98-6.66-6.77.02-3.8 2.95-6.65 6.79-6.61z"/>
        <path id="dot_cover2" d="M274.99 619.02c3.73.05 6.64 3.1 6.55 6.88-.08 3.62-3.09 6.52-6.75 6.5-3.75-.02-6.65-3.01-6.62-6.81.03-3.78 2.97-6.62 6.82-6.57z"/>
        <path id="dot_cover3" d="M301.68 612.33c3.75.02 6.68 3.03 6.62 6.8-.05 3.64-3.02 6.56-6.68 6.58-3.76.01-6.71-2.95-6.7-6.73.03-3.81 2.94-6.68 6.76-6.65z"/>
        <path id="dot_cover4" d="M321.71 625.6c.03-3.79 2.98-6.63 6.82-6.58 3.66.05 6.55 2.99 6.56 6.67 0 3.75-3 6.73-6.75 6.72-3.76-.02-6.66-3.01-6.63-6.81z"/>
      </g>
      <g id="dial_animation1" transform="translate(261.26 670.825)">
        <g id="dial_animation2" transform="rotate(-120)">
          <g id="dial_group" transform="translate(-336.067 -651.04)" stroke="none" stroke-width="1">
            <path id="dial_border" d="M343.234 645.81c-3.021-2.013-8.389-5.975-7.537-5.642.258.233-.581-.01 0 0-.126.386-.067.027 0 0-.012-.025-.354.176 0 0 11.857-10.352 11.503-10.876 23.529-22.055.93-.777.887.619 2.038.263 1.91 1.277 4.265 2.35 6.495 3.682-.279 1.204 3.982 4.094 3.188 5.041-10.9 11.383-22.37 24.603-23.192 24.18.149-.231-.194-.046.02-.032-.066-.178-.243.105-.02.032.01-.195-3.534-5.59-4.52-5.469z" transform="matrix(1.5 0 0 1.5 -154.595 -329.615)" fill="#FE8A30"/>
            <path id="dial" d="M301.62 709.5c-12.2-.1-22.44-9.68-23.33-21.9-.88-12.04 7.86-22.91 19.96-24.62 2.24-.32 4.57-.16 6.83.02 1.35.11 2.31-.15 3.36-1.04 21.97-18.59 43.97-37.15 66.01-55.66 1.3-1.09 2.88-2.01 4.49-2.51 2.83-.87 5.49 1.57 4.82 4.46-.39 1.69-1.27 3.43-2.38 4.76-18.43 22.02-36.91 43.99-55.44 65.93-1.08 1.28-1.5 2.44-1.22 4.12 2 11.78-7.05 24.1-18.97 25.92-1.37.23-2.75.35-4.13.52z" transform="translate(10.928 -1.337)" fill="#000"/>
          </g>
        </g>
      </g>
    </g>
  </g>
</svg>
